!!!COM: Bach, Johann Sebastian
!!!OPR: Joh. Seb. Bachs vierstimmige Choralgesänge
!!!XEN: Four-part Chorales
!!!OTL: 160. Sollt' ich meinem Gott nicht singen
!!!SCT: BWV 413
!!!SCA: Thematisch-systematisches Verzeichnis der musikalischen Werke Johann Sebastian Bach: Bach-Werke-Verzeichnis (Schmieder)
!!!YOR: Bach Gesellschaft Edition xxxix
!!!ENC: Steven Rasmussen
!!!CDT: 1685/3//-1750/7/28/
!!!OCY: Deutschland
!!!YEC: Copyright (c) 1994, 2000 Center for Computer Assisted Research in the Humanities
!!!YEM: Rights to all derivative editions reserved
!!!YEN: United States of America
**kern	**silbe	**kern	**silbe	**kern	**silbe	**kern	**silbe
*I:[BASSO]	*I:[BASSO]	*I:[TENORE]	*I:[TENORE]	*I:[ALTO]	*I:[ALTO]	*I:[SOPRANO]	*I:[SOPRANO]
*>[A,A,B]	*	*>[A,A,B]	*	*>[A,A,B]	*	*>[A,A,B]	*
*>A	*	*>A	*	*>A	*	*>A	*
*clefF4	*	*clefGv2	*	*clefG2	*	*clefG2	*
*k[b-]	*	*k[b-]	*	*k[b-]	*	*k[b-]	*
*F:	*	*F:	*	*F:	*	*F:	*
*M3/4	*	*M3/4	*	*M3/4	*	*M3/4	*
=1-	=1-	=1-	=1-	=1-	=1-	=1-	=1-
4D	.	4.F	Sollt'Denn	4A	Sollt'Denn	4.d	Sollt'Denn
4DD	.	.	.	8dL	ichich	.	.
.	.	8G	.	8c#	.	8e	.
4D	.	[4A	ichich	8d	.	8fL	ichich
.	.	.	.	8eJ	.	8gJ	.
=2	=2	=2	=2	=2	=2	=2	=2
8DL	mei-seh'	4A]	.	8fL	.	2a	mei-seh'
8C#	.	.	.	8e	.	.	.
8D	.	4d	mei-seh'	8f	.	.	.
8EJ	.	.	.	8gJ	.	.	.
8FL	-nemin	8dL	-nemin	4a	.	4dd	-nemin
8GJ	.	8eJ	.	.	.	.	.
=3	=3	=3	=3	=3	=3	=3	=3
4A	.	4f	.	4a	.	4dd	Gottal-
4G	.	4g	.	4b-	.	4ee	.
4A	.	8eL	.	4a	.	4cc#	nicht-len
.	.	8gJ	.	.	.	.	.
=4	=4	=4	=4	=4	=4	=4	=4
2D	.	4g	.	2a	.	2dd	sin-Din-
.	.	8fL	.	.	.	.	.
.	.	8eJ	.	.	.	.	.
4DD;	.	4f;	.	4a;	.	4dd;	-gen?-gen,
=5	=5	=5	=5	=5	=5	=5	=5
8DL	.	2d	.	2a	.	2ff	sollt'wie
8E	.	.	.	.	.	.	.
8F	.	.	.	.	.	.	.
8GJ	.	.	.	.	.	.	.
8AL	ichso	[4c	ichso	4a	.	4ee	ichso
8AAJ	.	.	.	.	.	.	.
=6	=6	=6	=6	=6	=6	=6	=6
8BB-L	ihmgut	4c]	ihmgut	2f	.	2dd	ihmgut
8C	.	.	.	.	.	.	.
8D	.	4B-	nichter's	.	.	.	.
8EJ	.	.	.	.	.	.	.
8FL	nichter's	8B-L	.	4f	.	4cc	nichter's
8FFJ	.	8AJ	.	.	.	.	.
=7	=7	=7	=7	=7	=7	=7	=7
8BB-L	.	8B-L	.	4f	.	8ddL	dank-mit
8AAJ	.	8cJ	.	.	.	8ccJ	.
4GG	.	4d	.	8fL	.	2b-	-barmir
.	.	.	.	8g	.	.	.
4C	.	4c	.	8f	.	.	.
.	.	.	.	8eJ	.	.	.
=8	=8	=8	=8	=8	=8	=8	=8
2.FF;/xx	.	2.c;\xx	.	2.f;/xx	.	2.a;/xx	sein?meint.
=9:|!	=9:|!	=9:|!	=9:|!	=9:|!	=9:|!	=9:|!	=9:|!
*>B	*	*>B	*	*>B	*	*>B	*
4D	.	2d	.	2f	.	2a	Ist
4d	.	.	.	.	.	.	.
8cL	.	4d	.	4f	.	8aL	doch
8B-J	.	.	.	.	.	8b-J	.
=10	=10	=10	=10	=10	=10	=10	=10
8AL	.	2c	.	8fL	.	2cc	nichts,
8AA	.	.	.	8g	.	.	.
8BB-	.	.	.	8f	.	.	.
8CJ	.	.	.	8eJ	.	.	.
8DL	.	4A	.	4f	.	4f	als
8CJ	.	.	.	.	.	.	.
=11	=11	=11	=11	=11	=11	=11	=11
8DL	.	4d	.	2f	.	2b-	lau-
8E	.	.	.	.	.	.	.
8F	.	2c	.	.	.	.	.
8GJ	.	.	.	.	.	.	.
8AL	.	.	.	4f	.	4a	-ter
8B-J	.	.	.	.	.	.	.
=12	=12	=12	=12	=12	=12	=12	=12
2c	.	2c	.	4f	.	2g	Lie-
.	.	.	.	8eL	.	.	.
.	.	.	.	8dJ	.	.	.
4C;	.	4c;	.	4e;	.	4g;	-ben,
=13	=13	=13	=13	=13	=13	=13	=13
4c	.	4c	.	4e	.	2g	das
8B-L	.	4d	.	4d	.	.	.
8AJ	.	.	.	.	.	.	.
8GL	sein	[4A	sein	4d	.	4a	sein
8F#J	.	.	.	.	.	.	.
=14	=14	=14	=14	=14	=14	=14	=14
8GL	treu-	4A]	.	4d	treu-	2b-	treu-
8F	.	.	.	.	.	.	.
8E-	.	4G	treu-	8gL	.	.	.
8DJ	.	.	.	8f#J	.	.	.
8E-L	-es	8cL	-es	[4g	-es	4cc	-es
8DJ	.	8dJ	.	.	.	.	.
=15	=15	=15	=15	=15	=15	=15	=15
8CL	.	8e-L	Her-	4g]	.	4b-	Her-
8BB-J	.	8d	.	.	.	.	.
4C	.	8e-	.	4g	Her-	4a	.
.	.	8cJ	.	.	.	.	.
4D	.	8AL	-ze	4f#	-ze	4b-	-ze
.	.	8dJ	.	.	.	.	.
=16	=16	=16	=16	=16	=16	=16	=16
2.GG;	.	2.B-;	.	2.d;	.	2.g;	regt,
=17	=17	=17	=17	=17	=17	=17	=17
8DL	.	2d	.	8fL	.	2a	das
8C#	.	.	.	8e	.	.	.
8D	.	.	.	8f	.	.	.
8EJ	.	.	.	8gJ	.	.	.
8FL	.	4d	.	8dL	.	8aL	ohn'
8DJ	.	.	.	8fJ	.	8b-J	.
=18	=18	=18	=18	=18	=18	=18	=18
8EL	.	2c	.	8gL	.	2cc	En-
8C	.	.	.	8e	.	.	.
8D	.	.	.	8f	.	.	.
8EJ	.	.	.	8gJ	.	.	.
8FL	.	4c	.	8aL	.	4a	-de
8EJ	.	.	.	8gJ	.	.	.
=19	=19	=19	=19	=19	=19	=19	=19
8DL	.	4d	.	2f	.	4b-	hebt
8EJ	.	.	.	.	.	.	.
8FL	.	2c	.	.	.	2a	und
8G	.	.	.	.	.	.	.
8A	.	.	.	4f	.	.	.
8B-J	.	.	.	.	.	.	.
=20	=20	=20	=20	=20	=20	=20	=20
2.c;	.	2.c;	.	(4f	.	2.g;	trÃ¤gt,
.	.	.	.	2e;)	.	.	.
=21	=21	=21	=21	=21	=21	=21	=21
8AL	.	4.c	.	4f	.	2f	die
8B-	.	.	.	.	.	.	.
8A	.	.	.	2c	.	.	.
8GJ	.	8B-	.	.	.	.	.
8FL	.	8AL	.	.	.	4f	in
8EJ	.	8GJ	.	.	.	.	.
=22	=22	=22	=22	=22	=22	=22	=22
8DL	.	2A	.	4d	.	4f	sei-
8E	.	.	.	.	.	.	.
8D	.	.	.	4e	.	4e	.
8CJ	.	.	.	.	.	.	.
8BB-L	.	4A	.	8dL	.	4f	-nem
8AAJ	.	.	.	8cJ	.	.	.
=23	=23	=23	=23	=23	=23	=23	=23
8BB-L	.	4G	.	4d	.	4g	Dienst
8GG	.	.	.	.	.	.	.
8C	.	4A	.	8cL	.	4f	.
8BB-J	.	.	.	8dJ	.	.	.
8AAL	.	4B-	.	4e	.	4g	sich
8GGJ	.	.	.	.	.	.	.
=24	=24	=24	=24	=24	=24	=24	=24
2FF	.	2c	.	2f	.	2a	Ã¼-
4FF;	.	4c;	.	4f;	.	4a;	-ben.
=25	=25	=25	=25	=25	=25	=25	=25
8FFL	Al-	2c	.	2f	.	2a	Al-
8AAJ	.	.	.	.	.	.	.
8CL	-les	.	.	.	.	.	.
[8FJ	.	.	.	.	.	.	.
8FL]	.	4c	.	4g	.	4g	-les
8EJ	.	.	.	.	.	.	.
=26	=26	=26	=26	=26	=26	=26	=26
8FL	Ding	2c	.	4g	.	2a	Ding
8G	.	.	.	.	.	.	.
8A	.	.	.	4f	.	.	.
8B-J	.	.	.	.	.	.	.
8cL	.	4c	.	4e	.	4g	wÃ¤hrt
8CJ	.	.	.	.	.	.	.
=27	=27	=27	=27	=27	=27	=27	=27
8FL	.	4c	.	2f	.	4a	sei-
8E	.	.	.	.	.	.	.
8D	.	2d	.	.	.	2bn	-ne
8GJ	.	.	.	.	.	.	.
8FL	.	.	.	4g	.	.	.
8GJ	.	.	.	.	.	.	.
=28	=28	=28	=28	=28	=28	=28	=28
2.C;	.	2.e;	.	2.g;	.	2.cc;	Zeit,
=29	=29	=29	=29	=29	=29	=29	=29
8GGL	Got-	4B-	Got-	4g	.	2dd	Got-
8G	.	.	.	.	.	.	.
8F	.	4f	-tes	2a	.	.	.
8EJ	.	.	.	.	.	.	.
8DL	-tes	[4e	Lieb'	.	.	4ee	-tes
8C#J	.	.	.	.	.	.	.
=30	=30	=30	=30	=30	=30	=30	=30
8DL	Lieb'	4e]	.	4.a	.	4.ff	Lieb'
8F	.	.	.	.	.	.	.
8G	.	8dL	.	.	.	.	.
8AJ	.	8c#J	.	8g	.	8ee	.
8B-L	.	8dL	in	[4f	in	4dd	in
8AJ	.	8cnJ	.	.	.	.	.
=31	=31	=31	=31	=31	=31	=31	=31
8GL	.	2B-	E-	4f]	.	4dd	E-
8F	.	.	.	.	.	.	.
8G	.	.	.	4e	E-	4ee	.
8EJ	.	.	.	.	.	.	.
8AL	.	4A	-wig-	8eL	-wig-	4cc#	-wig-
8AAJ	.	.	.	8gJ	.	.	.
=32	=32	=32	=32	=32	=32	=32	=32
2.D;	.	2.A;	-keit.	2.f#;	-keit.	2.dd;	-keit.
==|!	==|!	==|!	==|!	==|!	==|!	==|!	==|!
*-	*-	*-	*-	*-	*-	*-	*-
!!!RWG: Key is interpreted using the Humdrum key tool.
!!!URL-pdf: https://s9.imslp.org/files/imglnks/usimg/6/6b/IMSLP24489-PMLP09471-CCARH_Bach_Chorales.pdf#page=111 Musedata edition
!!!URL-pdf: https://s9.imslp.org/files/imglnks/usimg/7/7a/IMSLP04155-Bach_-_BGA_253-438.pdf#page=88 	Bach-Gesellschaft Ausgabe, Band 39 (pp.175-276) Leipzig: Breitkopf und Härtel, 1892. Plate B.W. XXXIX.
!!!END: 1994/07/29
!!!EMD: Converted from MuseData to Humdrum Dec 19, 2000, by Andreas Kornstaedt using muse2kern.
!!!EED: Craig Stuart Sapp
!!!EEV: 2024/03/31
!!!filter-keyboard: satb2gs
!!!title: @{OTL} (@{SCT})
